src/assets/outline/DirectboxReceive.svg

<svg width="24" height="24" viewBox="0 0 24 24"  xmlns="http://www.w3.org/2000/svg">
<path d="M12 8.75C11.9 8.75 11.81 8.73 11.71 8.69C11.43 8.58 11.25 8.3 11.25 8V2C11.25 1.59 11.59 1.25 12 1.25C12.41 1.25 12.75 1.59 12.75 2V6.19L13.47 5.47C13.76 5.18 14.24 5.18 14.53 5.47C14.82 5.76 14.82 6.24 14.53 6.53L12.53 8.53C12.39 8.67 12.19 8.75 12 8.75Z" />
<path d="M11.9999 8.74994C11.8099 8.74994 11.6199 8.67994 11.4699 8.52994L9.46994 6.52994C9.17994 6.23994 9.17994 5.75994 9.46994 5.46994C9.75994 5.17994 10.2399 5.17994 10.5299 5.46994L12.5299 7.46994C12.8199 7.75994 12.8199 8.23994 12.5299 8.52994C12.3799 8.67994 12.1899 8.74994 11.9999 8.74994Z" />
<path d="M16 22.75H8C2.25 22.75 2.25 19.7 2.25 17V16C2.25 13.77 2.25 11.25 7 11.25C8.19 11.25 8.63 11.54 9.25 12C9.28 12.03 9.32 12.05 9.35 12.09L10.37 13.17C11.23 14.08 12.79 14.08 13.65 13.17L14.67 12.09C14.7 12.06 14.73 12.03 14.77 12C15.39 11.53 15.83 11.25 17.02 11.25C21.77 11.25 21.77 13.77 21.77 16V17C21.75 20.82 19.82 22.75 16 22.75ZM7 12.75C3.75 12.75 3.75 13.77 3.75 16V17C3.75 19.74 3.75 21.25 8 21.25H16C18.98 21.25 20.25 19.98 20.25 17V16C20.25 13.77 20.25 12.75 17 12.75C16.28 12.75 16.13 12.84 15.7 13.16L14.73 14.19C14.01 14.95 13.04 15.37 12 15.37C10.96 15.37 9.99 14.95 9.27 14.19L8.3 13.16C7.87 12.84 7.72 12.75 7 12.75Z" />
<path d="M5 12.75C4.59 12.75 4.25 12.41 4.25 12V7.99996C4.25 6.05996 4.25 3.64996 7.93 3.29996C8.34 3.25996 8.71 3.55996 8.75 3.97996C8.79 4.38996 8.49 4.75996 8.07 4.79996C5.75 5.00996 5.75 5.94996 5.75 7.99996V12C5.75 12.41 5.41 12.75 5 12.75Z" />
<path d="M18.9999 12.7502C18.5899 12.7502 18.2499 12.4102 18.2499 12.0002V8.00022C18.2499 5.95022 18.2499 5.01022 15.9299 4.79022C15.5199 4.75022 15.2199 4.38022 15.2599 3.97022C15.2999 3.56022 15.6599 3.25022 16.0799 3.30022C19.7599 3.65022 19.7599 6.06022 19.7599 8.00022V12.0002C19.7499 12.4102 19.4099 12.7502 18.9999 12.7502Z" />
</svg>

<?xml version="1.0" encoding="UTF-8"?>
<svg width="24" height="24" viewBox="0 0 24 24" xmlns="http://www.w3.org/2000/svg">
 <path d="m12 8.75c-0.1 0-0.19-0.02-0.29-0.06-0.28-0.11-0.46-0.39-0.46-0.69v-6c0-0.41 0.34-0.75 0.75-0.75s0.75 0.34 0.75 0.75v4.19l0.72-0.72c0.29-0.29 0.77-0.29 1.06 0s0.29 0.77 0 1.06l-2 2c-0.14 0.14-0.34 0.22-0.53 0.22z"/>
 <path d="m12 8.7499c-0.19 0-0.38-0.07-0.53-0.22l-2-2c-0.29-0.29-0.29-0.77 0-1.06s0.76996-0.29 1.06 0l2 2c0.29 0.29 0.29 0.77 0 1.06-0.15 0.15-0.34 0.22-0.53 0.22z"/>
 <path d="m16 22.75h-8c-5.75 0-5.75-3.05-5.75-5.75v-1c0-2.23 0-4.75 4.75-4.75 1.19 0 1.63 0.29 2.25 0.75 0.03 0.03 0.07 0.05 0.1 0.09l1.02 1.08c0.86 0.91 2.42 0.91 3.28 0l1.02-1.08c0.03-0.03 0.06-0.06 0.1-0.09 0.62-0.47 1.06-0.75 2.25-0.75 4.75 0 4.75 2.52 4.75 4.75v1c-0.02 3.82-1.95 5.75-5.77 5.75zm-9-10c-3.25 0-3.25 1.02-3.25 3.25v1c0 2.74 0 4.25 4.25 4.25h8c2.98 0 4.25-1.27 4.25-4.25v-1c0-2.23 0-3.25-3.25-3.25-0.72 0-0.87 0.09-1.3 0.41l-0.97 1.03c-0.72 0.76-1.69 1.18-2.73 1.18s-2.01-0.42-2.73-1.18l-0.97-1.03c-0.43-0.32-0.58-0.41-1.3-0.41z"/>
 <path d="m5 12.75c-0.41 0-0.75-0.34-0.75-0.75v-4c0-1.94 0-4.35 3.68-4.7 0.41-0.04 0.78 0.26 0.82 0.68 0.04 0.41-0.26 0.78-0.68 0.82-2.32 0.21-2.32 1.15-2.32 3.2v4c0 0.41-0.34 0.75-0.75 0.75z"/>
 <path d="m19 12.75c-0.41 0-0.75-0.34-0.75-0.75v-4c0-2.05 0-2.99-2.32-3.21-0.41-0.04-0.71-0.41-0.67-0.82s0.4-0.72 0.82-0.67c3.68 0.35 3.68 2.76 3.68 4.7v4c-0.01 0.41-0.35 0.75-0.76 0.75z"/>
</svg>
